X:160
T: Wren's Nest [The]
C: Frankie Gavin
R: jig
D: De Dannan: "Anthem"
M: 6/8
K: Edor ()
F|GAB ded|cAA A2c|BGE EFG|AFD AFD|
GAB ded|cAA A2c|BGE AFD|GEE E2 :|
D|E2e d2B|cBA B2A|GAB ~d3|cAA BAG|
E2e d2B|cBA B2A|GAB cAB|GEE FE :|
D|B,EE GED|B,EE E2D|B,EE GAB|AFD AFD|
B,EE GED|B,EE E2F|GAB cAB|1 GEE FE :|2\
GEE E2||
